src/assets/svg/icons/fa/nuevos/classic/light/hourglass-half classic light.svg

<svg xmlns="http://www.w3.org/2000/svg" viewBox="0 0 384 512"><path d="M179.5 201.1L115.5 121.1C111.7 117.2 110.9 110.6 113.6 105.1C116.2 99.53 121.8 96 128 96H256C262.2 96 267.8 99.53 270.4 105.1C273.1 110.6 272.3 117.2 268.5 121.1L204.5 201.1C201.5 205.8 196.9 208 192 208C187.1 208 182.5 205.8 179.5 201.1zM192 166.4L222.7 128H161.3L192 166.4zM240 352C246.1 352 251.6 355.4 254.3 360.8L286.3 424.8C288.8 429.8 288.5 435.7 285.6 440.4C282.7 445.1 277.5 448 272 448H111.1C106.5 448 101.3 445.1 98.39 440.4C95.47 435.7 95.21 429.8 97.69 424.8L129.7 360.8C132.4 355.4 137.9 352 143.1 352H240zM246.1 416L230.1 384H153.9L137.9 416H246.1zM16 512C7.164 512 0 504.8 0 496C0 487.2 7.164 480 16 480H32V435.3C32 403.7 42.41 372.1 61.61 347.9L131.9 256L61.61 164.1C42.41 139 32 108.3 32 76.67V32H16C7.164 32 0 24.84 0 16C0 7.164 7.164 0 16 0H368C376.8 0 384 7.164 384 16C384 24.84 376.8 32 368 32H352V76.67C352 108.3 341.6 139 322.4 164.1L252.1 256L322.4 347.9C341.6 372.1 352 403.7 352 435.3V480H368C376.8 480 384 487.2 384 496C384 504.8 376.8 512 368 512H16zM320 435.3C320 410.7 311.9 386.8 296.1 367.3L219.3 265.7C214.9 259.1 214.9 252 219.3 246.3L296.1 144.7C311.9 125.2 320 101.3 320 76.67V32H64V76.67C64 101.3 72.09 125.2 87.03 144.7L164.7 246.3C169.1 252 169.1 259.1 164.7 265.7L87.03 367.3C72.09 386.8 64 410.7 64 435.3V480H320V435.3z"/></svg>

<svg xmlns="http://www.w3.org/2000/svg" viewBox="0 0 384 512"><!--! Font Awesome Pro 6.4.0 by @fontawesome - https://fontawesome.com License - https://fontawesome.com/license (Commercial License) Copyright 2023 Fonticons, Inc. --><path d="M16 512c-8.8 0-16-7.2-16-16s7.2-16 16-16H32l0-44.7c0-31.6 10.4-62.4 29.6-87.5L131.9 256 61.6 164.1C42.4 139 32 108.3 32 76.7V32H16C7.2 32 0 24.8 0 16S7.2 0 16 0H368c8.8 0 16 7.2 16 16s-7.2 16-16 16H352V76.7c0 31.6-10.4 62.4-29.6 87.5L252.1 256l70.2 91.9C341.6 373 352 403.7 352 435.3V480h16c8.8 0 16 7.2 16 16s-7.2 16-16 16H16zm304-32V435.3c0-24.6-8.1-48.5-23-68L219.3 265.7c-4.4-5.7-4.4-13.7 0-19.4L297 144.7c14.9-19.5 23-43.4 23-68V32H64l0 44.7c0 24.6 8.1 48.5 23 68l77.7 101.6c4.4 5.7 4.4 13.7 0 19.4L87 367.3c-14.9 19.5-23 43.4-23 68L64 480H320zM192 208c-4.9 0-9.5-2.2-12.5-6l-64-80c-3.8-4.8-4.6-11.4-1.9-16.9s8.3-9.1 14.4-9.1h64 64c6.2 0 11.8 3.5 14.4 9.1s1.9 12.1-1.9 16.9l-64 80c-3 3.8-7.6 6-12.5 6zm-30.7-80L192 166.4 222.7 128H192 161.3zM144 352h96c6.1 0 11.6 3.4 14.3 8.8l32 64c2.5 5 2.2 10.9-.7 15.6s-8.1 7.6-13.6 7.6H192 112c-5.5 0-10.7-2.9-13.6-7.6s-3.2-10.6-.7-15.6l32-64c2.7-5.4 8.3-8.8 14.3-8.8zm-6.1 64H192h54.1l-16-32H153.9l-16 32z"/></svg>
